common/src/main/resources/icons/plugins/swagger/swagger.svg

<!--
  - The MIT License (MIT)
  -
  - Copyright (c) 2015-2024 Elior "Mallowigi" Boukhobza
  -
  - Permission is hereby granted, free of charge, to any person obtaining a copy
  - of this software and associated documentation files (the "Software"), to deal
  - in the Software without restriction, including without limitation the rights
  - to use, copy, modify, merge, publish, distribute, sublicense, and/or sell
  - copies of the Software, and to permit persons to whom the Software is
  - furnished to do so, subject to the following conditions:
  -
  - The above copyright notice and this permission notice shall be included in all
  - copies or substantial portions of the Software.
  -
  - THE SOFTWARE IS PROVIDED "AS IS", WITHOUT WARRANTY OF ANY KIND, EXPRESS OR
  - IMPLIED, INCLUDING BUT NOT LIMITED TO THE WARRANTIES OF MERCHANTABILITY,
  - FITNESS FOR A PARTICULAR PURPOSE AND NONINFRINGEMENT. IN NO EVENT SHALL THE
  - AUTHORS OR COPYRIGHT HOLDERS BE LIABLE FOR ANY CLAIM, DAMAGES OR OTHER
  - LIABILITY, WHETHER IN AN ACTION OF CONTRACT, TORT OR OTHERWISE, ARISING FROM,
  - OUT OF OR IN CONNECTION WITH THE SOFTWARE OR THE USE OR OTHER DEALINGS IN THE
  - SOFTWARE.
  -->

<svg data-big="true" version="1.1" xmlns="http://www.w3.org/2000/svg" x="0px" y="0px" width="16px" height="16px"
     viewBox="0 0 512 512"
     preserveAspectRatio="xMidYMid meet">
  <path fill="#7963E6"
        d="M127.7110825,34.4531364c-170.2814789,98.1692047-170.2814026,344.9245911,0,443.0937195S512,452.3383789,512,256.0000305S297.9924927-63.7160034,127.7110825,34.4531364z M176.3741302,408.5532532c-122.139801,0-19.929306-137.3335266-104.7761612-134.9657288v-36.7011261c80.0386734,9.9306183-15.3906517-146.2125549,104.1839828-132.5976257v28.4137802c-66.6934204,1.5785828-0.3946075,86.8199158-60.3792725,122.5344086c60.3792725,39.6608887-3.1571045,130.0325317,60.9714508,120.1665955V408.5532532z M172.0883179,275.1309204c-13.7811279-7.9449768-13.7811279-27.9151764,0-35.8600769c13.7810516-7.9449921,31.1009064,2.0401154,31.1009064,17.9299927S185.8693695,283.0758362,172.0883179,275.1309204z M245.6174622,275.1309204c-13.7810669-7.9449768-13.7810669-27.9151764,0-35.8600769c13.7810669-7.9449921,31.1008911,2.0401154,31.1008911,17.9299927S259.3985291,283.0758362,245.6174622,275.1309204z M319.1466064,275.1309204c-13.7810669-7.9449768-13.7810669-27.9151764,0-35.8600769c13.7810669-7.9449921,31.1009827,2.0401154,31.1009827,17.9299927S332.9276733,283.0758362,319.1466064,275.1309204z M335.6259155,408.5532532v-33.1496887c64.1285706,9.8659363,0.5921631-80.5057068,60.9714355-120.1665955c-59.9846497-35.7144928,6.3141479-120.9558258-60.3792725-122.5344086v-28.4137802c119.574646-13.6149292,24.1453247,142.5282288,104.1839905,132.5976257v36.7011261C355.5552063,271.2197266,457.7657166,408.5532532,335.6259155,408.5532532z"/>
</svg>

<svg xmlns="http://www.w3.org/2000/svg" width="16" height="16" data-big="true" viewBox="0 0 512 512"><path fill="#7963E6" d="M127.711 34.453c-170.281 98.17-170.281 344.925 0 443.094S512 452.338 512 256 297.992-63.716 127.711 34.453m48.663 374.1c-122.14 0-19.93-137.333-104.776-134.965v-36.702c80.039 9.931-15.39-146.212 104.184-132.597v28.414c-66.693 1.578-.395 86.82-60.38 122.534 60.38 39.66-3.156 130.032 60.972 120.167zm-4.286-133.422c-13.78-7.945-13.78-27.915 0-35.86 13.781-7.945 31.101 2.04 31.101 17.93s-17.32 25.875-31.1 17.93m73.53 0c-13.782-7.945-13.782-27.915 0-35.86 13.78-7.945 31.1 2.04 31.1 17.93s-17.32 25.875-31.1 17.93m73.529 0c-13.781-7.945-13.781-27.915 0-35.86 13.78-7.945 31.1 2.04 31.1 17.93s-17.32 25.875-31.1 17.93m16.479 133.422v-33.15c64.128 9.867.592-80.505 60.971-120.166-59.984-35.715 6.314-120.956-60.379-122.534v-28.414c119.575-13.615 24.145 142.528 104.184 132.597v36.702c-84.847-2.368 17.364 134.965-104.776 134.965"/></svg>
